dist/icons/svgs/arrow-right-to-bracket-outline.svg

<svg xmlns="http://www.w3.org/2000/svg" width="24" height="24" fill="currentcolor" class="icon-arrow-right-to-bracket-outline" viewBox="0 0 24 24">
  <path d="M10.4766 17.6641C10.0859 18.0547 9.5 18.0547 9.14844 17.6641C8.75781 17.3125 8.75781 16.7266 9.14844 16.3359L12.5469 12.9375H2.9375C2.39062 12.9375 2 12.5469 2 12C2 11.4922 2.39062 11.0625 2.9375 11.0625H12.5469L9.14844 7.66406C8.75781 7.3125 8.75781 6.72656 9.14844 6.33594C9.5 5.98438 10.0859 5.98438 10.4766 6.33594L15.4766 11.375C15.8281 11.7266 15.8281 12.3125 15.4766 12.6641L10.4766 17.6641ZM15.4375 5.125C14.8906 5.125 14.5 4.73438 14.5 4.1875C14.5 3.67969 14.8906 3.25 15.4375 3.25H18.5625C20.4375 3.25 22 4.8125 22 6.6875V17.3125C22 19.2266 20.4375 20.75 18.5625 20.75H15.4375C14.8906 20.75 14.5 20.3594 14.5 19.8125C14.5 19.3047 14.8906 18.875 15.4375 18.875H18.5625C19.4219 18.875 20.125 18.2109 20.125 17.3125V6.6875C20.125 5.82812 19.4219 5.125 18.5625 5.125H15.4375Z"/>
</svg>

<svg xmlns="http://www.w3.org/2000/svg" width="24" height="24" fill="currentColor" class="icon-arrow-right-to-bracket-outline" viewBox="0 0 24 24">
  <path d="M10.477 17.664c-.391.39-.977.39-1.329 0-.39-.352-.39-.937 0-1.328l3.399-3.398h-9.61C2.391 12.938 2 12.547 2 12c0-.508.39-.937.938-.937h9.609L9.148 7.664c-.39-.351-.39-.937 0-1.328.352-.352.938-.352 1.329 0l5 5.039a.92.92 0 0 1 0 1.29zm4.96-12.539c-.546 0-.937-.39-.937-.937 0-.508.39-.938.938-.938h3.124C20.438 3.25 22 4.813 22 6.688v10.625a3.443 3.443 0 0 1-3.437 3.437h-3.125c-.547 0-.938-.39-.938-.937 0-.508.39-.938.938-.938h3.124c.86 0 1.563-.664 1.563-1.562V6.688c0-.86-.703-1.563-1.562-1.563z"/>
</svg>
